raw/symbols/aave.svg

<svg width="42" height="42" viewBox="0 0 42 42" fill="none" xmlns="http://www.w3.org/2000/svg">
<path d="M21 42C32.598 42 42 32.598 42 21C42 9.40202 32.598 0 21 0C9.40202 0 0 9.40202 0 21C0 32.598 9.40202 42 21 42Z" fill="#B6509E"/>
<path d="M31.1259 30.1733L23.3128 11.2909C22.8713 10.3152 22.2186 9.83691 21.3548 9.83691H20.6637C19.7999 9.83691 19.1472 10.3152 18.7056 11.2909L15.308 19.5175H12.7354C12.365 19.5189 12.0101 19.6664 11.7478 19.9278C11.4854 20.1893 11.3368 20.5437 11.3341 20.9141V20.9332C11.3368 21.3036 11.4854 21.658 11.7478 21.9194C12.0101 22.1809 12.365 22.3284 12.7354 22.3298H14.1173L10.8733 30.1733C10.812 30.3454 10.7795 30.5265 10.7773 30.7091C10.7773 31.1492 10.9117 31.4935 11.1613 31.7614C11.4109 32.0292 11.7564 32.1629 12.1979 32.1629C12.4878 32.159 12.7694 32.0655 13.004 31.895C13.2536 31.7229 13.4263 31.4742 13.5607 31.1872L17.1313 22.3295H19.6077C19.9781 22.3281 20.333 22.1806 20.5954 21.9191C20.8577 21.6577 21.0064 21.3033 21.0091 20.9329V20.8946C21.0064 20.5242 20.8577 20.1698 20.5954 19.9084C20.333 19.6469 19.9781 19.4994 19.6077 19.498H18.2833L21.0092 12.7066L28.4384 31.1873C28.5728 31.4742 28.7456 31.7231 28.9951 31.8951C29.2298 32.0656 29.5115 32.1592 29.8014 32.163C30.243 32.163 30.5885 32.0291 30.8381 31.7613C31.0877 31.4933 31.222 31.149 31.222 30.709C31.2293 30.5256 31.1965 30.3428 31.1259 30.1733Z" fill="#F3F3F3"/>
</svg>

<svg xmlns="http://www.w3.org/2000/svg" width="42" height="42" fill="none"><path fill="#B6509E" d="M21 42c11.598 0 21-9.402 21-21S32.598 0 21 0 0 9.402 0 21s9.402 21 21 21Z"/><path fill="#F3F3F3" d="m31.126 30.173-7.813-18.882c-.442-.976-1.094-1.454-1.958-1.454h-.691c-.864 0-1.517.478-1.958 1.454l-3.398 8.226h-2.573a1.407 1.407 0 0 0-1.4 1.397v.02a1.406 1.406 0 0 0 1.4 1.396h1.382l-3.244 7.843a1.657 1.657 0 0 0-.096.536c0 .44.135.785.384 1.052.25.268.595.402 1.037.402.29-.004.571-.097.806-.268.25-.172.422-.42.557-.708l3.57-8.858h2.477a1.407 1.407 0 0 0 1.401-1.396v-.038a1.407 1.407 0 0 0-1.401-1.397h-1.325l2.726-6.791 7.43 18.48c.134.287.307.536.556.708.235.17.517.264.806.268.442 0 .788-.134 1.037-.402.25-.268.384-.612.384-1.052a1.263 1.263 0 0 0-.096-.536Z"/></svg>
